X: 1
T: Michael's Matches
M: 4/4
L: 1/8
R: reel
K: Bmin
|:BABf3 ef|afbf afde|BABf3 ef|afec dBBA|
BABf3 ef|afbf afde|B3c ABec|dfaf feec:|
|:FBdc3 Bc| (3dcB cA BAFE|FBdc3 Bc|dfaf ^ge (3cBA|
FBdc3 Bc| (3dcB cA BAFA|B3F ABec|dfaf feec:|
|:fA (3AAA f2ef|g2 (3fed ed (3cBA|fA (3AAA f2ef| (3gfe (3bge d3e|
fA (3AAA f2ef|g2 (3fed ed (3cBA|B3c ABec|1 dfaf feec:|2 dfaf fe (3Ace||
|:g3f egfe|decA GA (3Ace|g3f egfe|GA (3AAA A2 (3Ace|
g3f egfe|ageb geag|ebge decA|GA (3AAA A2 (3Ace:|
